X: 31346
T: Paddy Mills' Fancy
R: reel
M: 4/4
K: Gmajor
D|G2A2 B2AG|F>GAB c2Bc|d>e=fe dcAG|G3F D2(3DEF|
G3A B2AG|F>GAB c2Bc|d>e=fe dcA^F|G4 G3:|
B/c/|d3e f2e2|d2cB c2Bc|d2=fe dcA^F|G3F D2(3DEF|
G3A B2AF|FGAB c2Bc|d>e=fe dcA^F|G4 G2:|

